figures-source/5.27.svg

<svg xmlns:rdf="http://www.w3.org/1999/02/22-rdf-syntax-ns#" xmlns="http://www.w3.org/2000/svg" height="222.22" width="355.57" version="1.1" xmlns:cc="http://creativecommons.org/ns#" xmlns:dc="http://purl.org/dc/elements/1.1/">
 <metadata>
  <rdf:RDF>
   <cc:Work rdf:about="">
    <dc:format>image/svg+xml</dc:format>
    <dc:type rdf:resource="http://purl.org/dc/dcmitype/StillImage"/>
    <dc:title/>
   </cc:Work>
  </rdf:RDF>
 </metadata>
 <defs>
  <marker id="Arrow1Lend" refY="0" refX="0" orient="auto">
   <path style="marker-start:none;" d="m-10,0,0-2,10,2-10,2z" fill-rule="evenodd" stroke="#000" stroke-width="1px"/>
  </marker>
  <marker id="Arrow1Lend_a7a7a7" refY="0" refX="0" orient="auto">
   <path style="marker-start:none;" d="m-10,0,0-2,10,2-10,2z" fill-rule="evenodd" stroke="#a7a7a7" stroke-width="1px" fill="#a7a7a7"/>
  </marker>
  <marker id="Arrow1Lend_b6b6b6" refY="0" refX="0" orient="auto">
   <path style="marker-start:none;" d="m-10,0,0-2,10,2-10,2z" fill-rule="evenodd" stroke="#b6b6b6" stroke-width="1px" fill="#b6b6b6"/>
  </marker>
  <marker id="Arrow1Lend_bcbcbc" refY="0" refX="0" orient="auto">
   <path style="marker-start:none;" d="m-10,0,0-2,10,2-10,2z" fill-rule="evenodd" transform="scale(0.75,0.75)" stroke="#bcbcbc" stroke-width="1px" fill="#bcbcbc"/>
  </marker>
 </defs>
 <g transform="translate(-56.5,-75)">
  <rect rx="6.1162" ry="18" height="36" width="59.09" stroke="#a7a7a7" y="199.48" x="261.88" stroke-width="3px" fill="#d3f5d6"/>
  <text font-family="Courier New" font-size="12px" stroke="#ababab" y="199.48" x="261.88" stroke-width="0px" fill="#ababab">
   <tspan font-size="12px" fill="#aaaaaa" style="text-anchor:middle;text-align:center;" stroke="#aaaaaa" y="223.48" x="291.42511" font-family="&apos;Courier" text-align="center">e43a6</tspan>
  </text>
  <rect rx="6.1162" ry="18" height="36" width="59.09" stroke="#616161" y="137.74" x="177.24" stroke-width="3px" fill="#d3f5d6"/>
  <text font-family="Courier New" font-size="12px" stroke="#000000" y="137.74001" x="177.243" stroke-width="0px" fill="#000000">
   <tspan font-size="12px" fill="#000000" style="text-anchor:middle;text-align:center;" stroke="#000000" y="161.74001" x="206.7881" font-family="&apos;Courier" text-align="center">a6b4c</tspan>
  </text>
  <rect rx="6.1162" ry="18" height="36" width="59.09" stroke="#616161" y="137.74" x="92.606" stroke-width="3px" fill="#d3f5d6"/>
  <text font-family="Courier New" font-size="12px" stroke="#000000" y="137.74001" x="92.606003" stroke-width="0px" fill="#000000">
   <tspan font-size="12px" fill="#000000" style="text-anchor:middle;text-align:center;" stroke="#000000" y="161.74001" x="122.1511" font-family="&apos;Courier" text-align="center">0b743</tspan>
  </text>
  <rect rx="6.1162" ry="18" height="36" width="59.09" stroke="#a7a7a7" y="199.48" x="346.52" stroke-width="3px" fill="#d3f5d6"/>
  <text font-family="Courier New" font-size="12px" stroke="#ababab" y="199.48" x="346.51801" stroke-width="0px" fill="#ababab">
   <tspan font-size="12px" fill="#aaaaaa" style="text-anchor:middle;text-align:center;" stroke="#aaaaaa" y="223.48" x="376.06311" font-family="&apos;Courier" text-align="center">5ddae</tspan>
  </text>
  <path style="marker-start:none;marker-end:url(#Arrow1Lend_a7a7a7);" fill="none" d="m345.02,217.48-22.548,0" stroke="#a7a7a7"/>
  <path style="marker-start:none;marker-end:url(#Arrow1Lend_b6b6b6);" fill="none" d="M266.76,199.49,231.45,173.73" stroke="#b6b6b6"/>
  <path style="marker-start:none;marker-end:url(#Arrow1Lend);" fill="none" d="m175.74,155.74-22.547,0" stroke="#000"/>
  <path style="marker-end:url(#Arrow1Lend);marker-start:none;" d="M91.106,155.74,57,155.74" stroke="#000" stroke-dasharray="3, 3" fill="none"/>
  <rect height="36" width="70.022" stroke="#a7a7a7" y="260.22" x="341.05" stroke-width="2px" fill="#EEE"/>
  <text font-family="Luxi Sans" font-size="10px" stroke="#ababab" y="260.22" x="341.052" stroke-width="0px" fill="#ababab">
   <tspan font-size="10px" fill="#aaaaaa" style="text-anchor:middle;text-align:center;" stroke="#aaaaaa" y="283.22" x="376.06311" font-family="&apos;LucidaGrande" text-align="center">ruby_client</tspan>
  </text>
  <path style="marker-start:none;marker-end:url(#Arrow1Lend_a7a7a7);" fill="none" d="m376.06,259.22,0-22.24" stroke="#a7a7a7"/>
  <rect height="36" width="70.022" stroke="#616161" y="76" x="341.05" stroke-width="2px" fill="#EEE"/>
  <text font-family="Luxi Sans" font-size="10px" stroke="#cccccc" y="76" x="341.052" stroke-width="0px" fill="#cccccc">
   <tspan font-size="10px" fill="#777777" style="text-anchor:middle;text-align:center;" stroke="#777777" y="99" x="376.06311" font-family="&apos;LucidaGrande" text-align="center">master</tspan>
  </text>
  <path style="marker-start:none;marker-end:url(#Arrow1Lend);" fill="none" d="m376.06,113-0.001,23.24" stroke="#000"/>
  <rect rx="6.1162" ry="18" height="36" width="59.09" stroke="#616161" y="138.24" x="261.88" stroke-width="3px" fill="#d3f5d6"/>
  <text font-family="Courier New" font-size="12px" stroke="#000000" y="138.24001" x="261.88" stroke-width="0px" fill="#000000">
   <tspan font-size="12px" fill="#000000" style="text-anchor:middle;text-align:center;" stroke="#000000" y="162.24001" x="291.42511" font-family="&apos;Courier" text-align="center">f42c5</tspan>
  </text>
  <path style="marker-start:none;marker-end:url(#Arrow1Lend);" fill="none" d="m260.38,156.06-22.547-0.134" stroke="#000"/>
  <rect rx="6.1162" ry="18" height="36" width="59.09" stroke="#616161" y="137.74" x="346.52" stroke-width="3px" fill="#d3f5d6"/>
  <text font-family="Courier New" font-size="12px" stroke="#000000" y="137.74001" x="346.517" stroke-width="0px" fill="#000000">
   <tspan font-size="12px" fill="#000000" style="text-anchor:middle;text-align:center;" stroke="#000000" y="161.74001" x="376.0621" font-family="&apos;Courier" text-align="center">a0a41</tspan>
  </text>
  <path style="marker-start:none;marker-end:url(#Arrow1Lend);" fill="none" d="m345.02,155.92-22.547,0.134" stroke="#000"/>
  <path style="marker-end:url(#Arrow1Lend_bcbcbc);marker-start:none;" d="m316.08,199.49,35.317-25.762" stroke="#bcbcbc" stroke-dasharray="3, 3" stroke-width="2px" fill="none"/>
 </g>
</svg>

<?xml version="1.0" encoding="utf-8"?>
<svg xmlns="http://www.w3.org/2000/svg" xmlns:xlink="http://www.w3.org/1999/xlink">
	<defs>
		<marker id="Arrow1Lend" orient="auto" refX="0.0" refY="0.0" style="overflow:visible;">
			<path d="M -10,0.0 L -10.0,-2.0 L 0.0,0.0 L -10.0,2.0 z " id="path3666" style="fill-rule:evenodd;stroke:#000000;stroke-width:1.0px;marker-start:none;"/>
		</marker>
		<marker id="Arrow1Lend_a7a7a7" orient="auto" refX="0.0" refY="0.0" style="overflow:visible;">
			<path d="M -10,0.0 L -10.0,-2.0 L 0.0,0.0 L -10.0,2.0 z " id="path3666" style="fill-rule:evenodd;stroke:#000000;stroke-width:1.0px;marker-start:none;fill:#a7a7a7;stroke:#a7a7a7"/>
		</marker>
		<marker id="Arrow1Lend_b6b6b6" orient="auto" refX="0.0" refY="0.0" style="overflow:visible;">
			<path d="M -10,0.0 L -10.0,-2.0 L 0.0,0.0 L -10.0,2.0 z " id="path3666" style="fill-rule:evenodd;stroke:#000000;stroke-width:1.0px;marker-start:none;fill:#b6b6b6;stroke:#b6b6b6"/>
		</marker>
		<marker id="Arrow1Lend_bcbcbc" orient="auto" refX="0.0" refY="0.0" style="overflow:visible;">
			<path d="M -10,0.0 L -10.0,-2.0 L 0.0,0.0 L -10.0,2.0 z " id="path3666" style="fill-rule:evenodd;stroke:#000000;stroke-width:1.0px;marker-start:none;fill:#bcbcbc;stroke:#bcbcbc" transform="scale(0.75)"/>
		</marker>
	</defs>
	<g style="stroke:#000000;fill:#fff">
		<rect height="36.0" id="1342" rx="6.1162089889" ry="18.0" style="stroke:#a7a7a7;stroke-width:3.000000px;fill:#d3f5d6" width="59.0902" x="261.88" y="199.48"/>
		<text id="1342_text" style="fill:#ababab;stroke:#ababab;stroke-width:0px;font-family: Courier New;font-size:12px" x="261.88" y="199.48">
			<tspan fill="#aaaaaa" font-family="Courier;" font-size="12.0px" id="1342_line1" stroke="#aaaaaa" text-align="center" text-anchor="middle" x="291.4251" y="223.48">
				e43a6
			</tspan>
		</text>
		<rect height="36.0" id="1343" rx="6.1162089889" ry="18.0" style="stroke:#616161;stroke-width:3.000000px;fill:#d3f5d6" width="59.0902" x="177.243" y="137.74"/>
		<text id="1343_text" style="fill:#000000;stroke:#000000;stroke-width:0px;font-family: Courier New;font-size:12px" x="177.243" y="137.74">
			<tspan fill="#000000" font-family="Courier;" font-size="12.0px" id="1343_line1" stroke="#000000" text-align="center" text-anchor="middle" x="206.7881" y="161.74">
				a6b4c
			</tspan>
		</text>
		<rect height="36.0" id="1344" rx="6.1162089889" ry="18.0" style="stroke:#616161;stroke-width:3.000000px;fill:#d3f5d6" width="59.0902" x="92.606" y="137.74"/>
		<text id="1344_text" style="fill:#000000;stroke:#000000;stroke-width:0px;font-family: Courier New;font-size:12px" x="92.606" y="137.74">
			<tspan fill="#000000" font-family="Courier;" font-size="12.0px" id="1344_line1" stroke="#000000" text-align="center" text-anchor="middle" x="122.1511" y="161.74">
				0b743
			</tspan>
		</text>
		<rect height="36.0" id="1345" rx="6.1162089889" ry="18.0" style="stroke:#a7a7a7;stroke-width:3.000000px;fill:#d3f5d6" width="59.0902" x="346.518" y="199.48"/>
		<text id="1345_text" style="fill:#ababab;stroke:#ababab;stroke-width:0px;font-family: Courier New;font-size:12px" x="346.518" y="199.48">
			<tspan fill="#aaaaaa" font-family="Courier;" font-size="12.0px" id="1345_line1" stroke="#aaaaaa" text-align="center" text-anchor="middle" x="376.0631" y="223.48">
				5ddae
			</tspan>
		</text>
		<path d="M 345.018,217.48 L 322.47,217.48" id="1346" style="marker-start:none;stroke:#a7a7a7;marker-end:url(#Arrow1Lend_a7a7a7);fill:none"/>
		<path d="M 266.765,199.491 L 231.448,173.729" id="1347" style="marker-start:none;stroke:#b6b6b6;marker-end:url(#Arrow1Lend_b6b6b6);fill:none"/>
		<path d="M 175.743,155.74 L 153.196,155.74" id="1348" style="marker-start:none;stroke:#000000;marker-end:url(#Arrow1Lend);fill:none"/>
		<path d="M 91.106,155.74 L 57.0,155.74" id="1349" style="marker-start:none;stroke:#000000;marker-end:url(#Arrow1Lend);stroke-dasharray:3 3;fill:none"/>
		<rect height="36.0" id="1350" style="stroke:#a7a7a7;stroke-width:2.000000px;fill:#eeeeee" width="70.0222" x="341.052" y="260.22"/>
		<text id="1350_text" style="fill:#ababab;stroke:#ababab;stroke-width:0px;font-family: Luxi Sans;font-size:10px" x="341.052" y="260.22">
			<tspan fill="#aaaaaa" font-family="LucidaGrande;" font-size="10.0px" id="1350_line1" stroke="#aaaaaa" text-align="center" text-anchor="middle" x="376.0631" y="283.22">
				ruby_client
			</tspan>
		</text>
		<path d="M 376.063,259.22 L 376.063,236.98" id="1351" style="marker-start:none;stroke:#a7a7a7;marker-end:url(#Arrow1Lend_a7a7a7);fill:none"/>
		<rect height="36.0" id="1352" style="stroke:#616161;stroke-width:2.000000px;fill:#eeeeee" width="70.0222" x="341.052" y="76.0"/>
		<text id="1352_text" style="fill:#cccccc;stroke:#cccccc;stroke-width:0px;font-family: Luxi Sans;font-size:10px" x="341.052" y="76.0">
			<tspan fill="#777777" font-family="LucidaGrande;" font-size="10.0px" id="1352_line1" stroke="#777777" text-align="center" text-anchor="middle" x="376.0631" y="99.0">
				master
			</tspan>
		</text>
		<path d="M 376.063,113.0 L 376.062,136.24" id="1353" style="marker-start:none;stroke:#000000;marker-end:url(#Arrow1Lend);fill:none"/>
		<rect height="36.0" id="1354" rx="6.1162089889" ry="18.0" style="stroke:#616161;stroke-width:3.000000px;fill:#d3f5d6" width="59.0902" x="261.88" y="138.24"/>
		<text id="1354_text" style="fill:#000000;stroke:#000000;stroke-width:0px;font-family: Courier New;font-size:12px" x="261.88" y="138.24">
			<tspan fill="#000000" font-family="Courier;" font-size="12.0px" id="1354_line1" stroke="#000000" text-align="center" text-anchor="middle" x="291.4251" y="162.24">
				f42c5
			</tspan>
		</text>
		<path d="M 260.38,156.057 L 237.833,155.923" id="1355" style="marker-start:none;stroke:#000000;marker-end:url(#Arrow1Lend);fill:none"/>
		<rect height="36.0" id="1356" rx="6.1162089889" ry="18.0" style="stroke:#616161;stroke-width:3.000000px;fill:#d3f5d6" width="59.0902" x="346.517" y="137.74"/>
		<text id="1356_text" style="fill:#000000;stroke:#000000;stroke-width:0px;font-family: Courier New;font-size:12px" x="346.517" y="137.74">
			<tspan fill="#000000" font-family="Courier;" font-size="12.0px" id="1356_line1" stroke="#000000" text-align="center" text-anchor="middle" x="376.0621" y="161.74">
				a0a41
			</tspan>
		</text>
		<path d="M 345.017,155.923 L 322.47,156.057" id="1357" style="marker-start:none;stroke:#000000;marker-end:url(#Arrow1Lend);fill:none"/>
		<path d="M 316.085,199.491 L 351.402,173.729" id="1358" style="marker-start:none;stroke:#bcbcbc;stroke-width:2.000000px;stroke-dasharray:3 3;marker-end:url(#Arrow1Lend_bcbcbc);fill:none"/>
	</g>
</svg>
